packages/foundations/assets/icons/functional/images/security/lock_closed_24_filled.svg

<svg xmlns="http://www.w3.org/2000/svg" width="20" height="20" fill="none"><path fill="#1A1C1F" fill-rule="evenodd" d="M9.574 2.536c-1.339.129-2.556.981-3.162 2.214C6.101 5.382 6 5.893 6 6.836v.661l-.125.018c-.599.088-.947.249-1.292.598-.27.275-.425.545-.517.907C4.003 9.268 4 9.4 4 12.5c0 3.112.002 3.232.067 3.483a2.01 2.01 0 0 0 1.316 1.409l.267.091h8.7l.267-.091a2.01 2.01 0 0 0 1.316-1.409c.065-.251.067-.371.067-3.483s-.002-3.232-.067-3.483A1.97 1.97 0 0 0 14.9 7.738c-.257-.126-.406-.169-.771-.222l-.121-.018-.017-.79c-.015-.705-.026-.828-.101-1.125-.429-1.684-1.805-2.876-3.519-3.048-.377-.038-.394-.038-.797.001m.959 2.053a2.06 2.06 0 0 1 1.243 1.015c.181.367.223.61.223 1.304L12 7.5H8l.001-.592c0-.39.017-.671.049-.825.232-1.103 1.384-1.797 2.483-1.494m-.08 6.02q.283.145.455.467c.074.139.075.157.075 1.407 0 1.433.008 1.387-.269 1.684-.402.429-1.041.421-1.442-.018-.27-.295-.278-.342-.266-1.737l.011-1.195.088-.167c.115-.215.266-.358.495-.466.159-.076.217-.086.433-.075.185.01.294.036.42.1"/></svg>

<svg width="20" height="20" viewBox="0 0 20 20" fill="none" xmlns="http://www.w3.org/2000/svg"><path d="M9.574 2.536 C 8.235 2.665,7.018 3.517,6.412 4.750 C 6.101 5.382,6.000 5.893,6.000 6.836 L 6.000 7.497 5.875 7.515 C 5.276 7.603,4.928 7.764,4.583 8.113 C 4.313 8.388,4.158 8.658,4.066 9.020 C 4.003 9.268,4.000 9.400,4.000 12.500 C 4.000 15.612,4.002 15.732,4.067 15.983 C 4.236 16.644,4.725 17.168,5.383 17.392 L 5.650 17.483 10.000 17.483 L 14.350 17.483 14.617 17.392 C 15.275 17.168,15.764 16.644,15.933 15.983 C 15.998 15.732,16.000 15.612,16.000 12.500 C 16.000 9.388,15.998 9.268,15.933 9.017 C 15.791 8.460,15.410 7.989,14.900 7.738 C 14.643 7.612,14.494 7.569,14.129 7.516 L 14.008 7.498 13.991 6.708 C 13.976 6.003,13.965 5.880,13.890 5.583 C 13.461 3.899,12.085 2.707,10.371 2.535 C 9.994 2.497,9.977 2.497,9.574 2.536 M10.533 4.589 C 11.052 4.732,11.544 5.134,11.776 5.604 C 11.957 5.971,11.999 6.214,11.999 6.908 L 12.000 7.500 10.000 7.500 L 8.000 7.500 8.001 6.908 C 8.001 6.518,8.018 6.237,8.050 6.083 C 8.282 4.980,9.434 4.286,10.533 4.589 M10.453 10.609 C 10.641 10.705,10.794 10.862,10.908 11.076 C 10.982 11.215,10.983 11.233,10.983 12.483 C 10.983 13.916,10.991 13.870,10.714 14.167 C 10.312 14.596,9.673 14.588,9.272 14.149 C 9.002 13.854,8.994 13.807,9.006 12.412 L 9.017 11.217 9.105 11.050 C 9.220 10.835,9.371 10.692,9.600 10.584 C 9.759 10.508,9.817 10.498,10.033 10.509 C 10.218 10.519,10.327 10.545,10.453 10.609 " fill="#1A1C1F" stroke="none" fill-rule="evenodd"></path></svg>
